dist/img/telegram.svg

<svg width="30" height="25" viewBox="0 0 30 25" fill="none" xmlns="http://www.w3.org/2000/svg">
<path d="M29.2377 0.760116C28.8832 0.326579 28.3522 0.0878906 27.7424 0.0878906C27.411 0.0878906 27.0598 0.157637 26.6989 0.295581L2.13255 9.6733C0.828843 10.1708 0.653259 10.9174 0.664551 11.3182C0.675843 11.719 0.893497 12.4545 2.22333 12.8777C2.2313 12.8801 2.23928 12.8825 2.24725 12.8847L7.34296 14.343L10.0987 22.2233C10.4745 23.2976 11.3179 23.9649 12.3001 23.9649C12.9194 23.9649 13.5285 23.7054 14.0617 23.2148L17.2136 20.3127L21.7852 23.9937C21.7856 23.9942 21.7863 23.9944 21.7867 23.9948L21.8301 24.0298C21.8341 24.0329 21.8383 24.0362 21.8423 24.0393C22.3505 24.4335 22.9051 24.6416 23.4469 24.6418H23.4471C24.5057 24.6418 25.3487 23.8582 25.5942 22.6457L29.6194 2.77037C29.781 1.9726 29.6455 1.25875 29.2377 0.760116ZM9.04766 14.066L18.8788 9.04359L12.7573 15.5482C12.657 15.6547 12.5859 15.7851 12.5509 15.927L11.3706 20.7083L9.04766 14.066ZM12.9096 21.9638C12.8689 22.0012 12.8279 22.0346 12.787 22.0654L13.8821 17.63L15.8742 19.2341L12.9096 21.9638ZM27.9528 2.43271L23.9276 22.3083C23.8889 22.4985 23.7651 22.9411 23.4469 22.9411C23.2897 22.9411 23.0922 22.8554 22.89 22.6998L17.7098 18.5287C17.7091 18.528 17.7082 18.5274 17.7073 18.5269L14.625 16.0448L23.4775 6.63832C23.7609 6.33719 23.7866 5.87598 23.5384 5.54518C23.2899 5.21438 22.8398 5.11032 22.4716 5.29852L7.91156 12.7368L2.74654 11.2591L27.3053 1.88426C27.5128 1.80499 27.6576 1.78838 27.7424 1.78838C27.7945 1.78838 27.887 1.79458 27.9213 1.83687C27.9665 1.892 28.0241 2.07999 27.9528 2.43271Z" fill="#039BE5"/>
</svg>

<svg width="30" height="25" fill="none" xmlns="http://www.w3.org/2000/svg"><path d="M29.238.76c-.355-.433-.886-.672-1.496-.672-.331 0-.682.07-1.043.208L2.133 9.673c-1.304.498-1.48 1.244-1.468 1.645.01.401.228 1.136 1.558 1.56l.024.007 5.096 1.458 2.756 7.88c.376 1.075 1.219 1.742 2.201 1.742.62 0 1.228-.26 1.762-.75l3.152-2.902 4.571 3.68.002.002.043.035.012.01c.509.393 1.063.602 1.605.602 1.059 0 1.902-.784 2.147-1.996L29.62 2.77c.162-.797.026-1.511-.381-2.01zM9.048 14.066l9.83-5.022-6.12 6.504a.849.849 0 00-.207.379l-1.18 4.781-2.323-6.642zm3.862 7.898c-.041.037-.082.07-.123.101l1.095-4.435 1.992 1.604-2.964 2.73zM27.953 2.433l-4.025 19.875c-.04.19-.163.633-.481.633-.157 0-.355-.086-.557-.241l-5.18-4.171-.003-.002-3.082-2.482 8.852-9.407a.85.85 0 00-1.005-1.34l-14.56 7.439-5.165-1.478 24.558-9.375a1.26 1.26 0 01.437-.096c.052 0 .145.007.18.049.044.055.102.243.03.596z" fill="#039BE5"/></svg>
